X:344150
T:Jock Wilson's Ball
C:
B: Scots Guard
H:
O:Kevin Fraser
Z:Kevin Fraser
Q:1/4=90
K:HP
M:C/
L:1/8
R:Reel
U: R = ///
U: r = //
U: V = !accent!
V:M gstem=up stem=down name="Melody" sname="Melody" 
V:H gstem=up stem=down name="Harmony" sname="Harmony"
V:C gstem=up stem=down name="C-Harmony" sname="C-Harmony"
V:S gstem=up stem=down dyn=up stafflines=1 clef=perc middle=G name="Snare" sname="Snare" sname="Snare"
V:B gstem=up stem=down clef=none dyn=up name="Bass" sname="Bass"
V:T gstem=up stem=down clef=none dyn=up name="Tenor" sname="Tenor"
I:MIDI=program 110
%%MIDI gracedivider 4
I:linebreak $
% %score {M H}
%%MIDI program 109 #bagpipes
%%MIDI vol 100
[V:M][| B/ | {Gdc}d2 c2 {gBd}B2 f2 | {g}B>c{g}c>d {g}eB{G}Bc | {Gdc}d2 c2 {gBd}B2 f2 | {AGAG}A2 {gef}e>A {g}c>{d}A{e}A>B | $
[V:M]        {Gdc}d2 c2 {gBd}B2 f2 | {g}B>c{g}c>d {g}eB{G}Bc | {Gdc}d2 c2 {gBd}B2 f2 | {AGAG}A2 {gef}e>A {g}c>{d}A{e}A |] $

